X: 100308
T: "THE PEARL" HORNPIPE
C: By W.C. Paton, Edinburgh
R: hornpipe
B: K\"ohler's Violin Repository, v.3, 1885 p.220 #2
F: http://www.archive.org/details/klersviolinrepos03rugg
Z: 2012 John Chambers <jc:trillian.mit.edu>
M: C|
L: 1/8
K: Bb
(uBc) |\
(d>B)d>f (b>f)d>B | (c>b)a>g (f>e)d>c | ("^>"bB)("^>"aB) ("^>"gB)("^>"fB) | (ed)cB A2Bc |
(d>B)d>f (b>f)d>B | (c>b)a>g (f>e)d>c | (f>=e)^c>A (a>g)f=e | d2d'2 d2 :|
|: uD2 |\
("^>"GF)GA (BA)Bc | (d"^>"^c)d"^>"c (d"^>"=c)BA | (de)d"^>"b (=cd)c"^>"a | (Bc)B"^>"g ("^>"BA)"^>"BA |
("^>"G^F)GA (BA)Bc | (d"^>"^c)d"^>"c (d"^>"=c)BA | (de)d"^>"b (=cd)ca | B2A2 G2 :|

%%sep 2 1 500

